X:13
T:Venture
C:Andy Cutting
R:mazurka
M:3/8
L:1/8
K:Amix
ec AG EB | A2 AG AB | c2 cA cd | e2 gf ed |
ce dc Ac | BA GB AG |1 E2 DE GE | E2- EE- EE :|2 E2 DE dc | A2- AA- AA |:
c'b ab gf | eg fe dB | GB AG EF | G2 FG E2 |
A,C EF GA | Bd cA GB | A/B/A GB dc | A2- AA- AA :|
